lib/brands/icons/power-bi.svg

<svg xmlns="http://www.w3.org/2000/svg" fill="none" aria-hidden="true" viewBox="0 0 48 48"><g id="power-bi-Icon"><g id="Vector"><path fill="#F2C811" d="M17.7793 34.8764C17.7793 36.046 16.8224 37.1092 15.5465 37.1092C14.2707 37.1092 13.3138 36.1523 13.3138 34.8764V25.3075C13.3138 24.1379 14.2707 23.0747 15.5465 23.0747C16.8224 23.0747 17.7793 24.0316 17.7793 25.3075V34.8764ZM24.1586 37.4282C24.1586 38.5977 23.2017 39.6609 21.9258 39.6609C20.65 39.6609 19.7994 38.704 19.7994 37.4282V22.8621C19.7994 21.6925 20.7563 20.6293 22.0321 20.6293C23.308 20.6293 24.2649 21.5862 24.2649 22.8621V37.4282H24.1586ZM11.2936 32.75C11.2936 33.9195 10.3367 34.9828 9.06088 34.9828C7.78502 34.9828 6.82812 34.0259 6.82812 32.75V27.5402C6.82812 26.3707 7.78502 25.3075 9.06088 25.3075C10.3367 25.3075 11.2936 26.3707 11.2936 27.5402V32.75ZM30.5379 39.7672C30.5379 40.9368 29.581 42 28.3051 42C27.1356 42 26.1787 40.9368 26.1787 39.7672V20.4167C26.1787 19.2471 27.1356 18.1839 28.4115 18.1839C29.581 18.1839 30.6442 19.1408 30.6442 20.4167V39.7672H30.5379Z"/><path fill="#F2C811" d="M37.5551 38.8103C37.1299 38.8103 36.8109 38.704 36.3856 38.5977L33.7276 37.7471C33.3023 37.6408 32.9833 37.1092 33.1959 36.6839C33.3023 36.2586 33.8339 35.9397 34.2592 36.1523L37.0235 37.0029C37.5551 37.2155 38.1931 37.1092 38.7247 36.6839C39.2563 36.3649 39.4689 35.727 39.4689 35.1954V17.4397C39.4689 16.5891 38.9373 15.8448 38.1931 15.6322L12.1442 7.76437C11.6126 7.55172 10.9747 7.65804 10.4431 7.97701C10.0178 8.4023 9.69882 8.93391 9.69882 9.57184V21.7988C9.69882 22.3305 9.27353 22.6494 8.84824 22.6494C8.31663 22.6494 7.99767 22.2241 7.99767 21.7988V9.57184C7.99767 8.4023 8.52927 7.33908 9.48617 6.70115C10.4431 5.95689 11.6126 5.85057 12.6758 6.16954L38.6184 14.0374C40.1069 14.4626 41.1701 15.9511 41.1701 17.546V35.3017C41.1701 36.4713 40.6385 37.5345 39.6816 38.2787C39.0436 38.4914 38.2994 38.8103 37.5551 38.8103Z"/></g></g></svg>

<svg xmlns="http://www.w3.org/2000/svg" fill="none" aria-hidden="true" viewBox="0 0 48 48"><path fill="#F2C811" d="M17.78 34.876c0 1.17-.958 2.233-2.234 2.233-1.275 0-2.232-.957-2.232-2.233v-9.568c0-1.17.957-2.233 2.232-2.233 1.276 0 2.233.957 2.233 2.233v9.568Zm6.379 2.552c0 1.17-.957 2.233-2.233 2.233-1.276 0-2.127-.957-2.127-2.233V22.862c0-1.17.957-2.233 2.233-2.233 1.276 0 2.233.957 2.233 2.233v14.566h-.106ZM11.294 32.75c0 1.17-.957 2.233-2.233 2.233-1.276 0-2.233-.957-2.233-2.233v-5.21c0-1.17.957-2.232 2.233-2.232 1.276 0 2.233 1.063 2.233 2.232v5.21Zm19.244 7.017c0 1.17-.957 2.233-2.233 2.233-1.17 0-2.126-1.063-2.126-2.233v-19.35c0-1.17.957-2.233 2.233-2.233 1.169 0 2.232.957 2.232 2.233v19.35h-.106Z"/><path fill="#F2C811" d="M37.555 38.81c-.425 0-.744-.106-1.17-.212l-2.657-.85c-.426-.107-.745-.639-.532-1.064.106-.425.638-.744 1.063-.532l2.764.85c.532.213 1.17.107 1.702-.318.531-.32.744-.957.744-1.489V17.44c0-.85-.532-1.595-1.276-1.808L12.144 7.764c-.531-.212-1.17-.106-1.7.213-.426.425-.745.957-.745 1.595v12.227c0 .532-.425.85-.85.85a.839.839 0 0 1-.851-.85V9.572c0-1.17.531-2.233 1.488-2.87.957-.745 2.127-.851 3.19-.532l25.942 7.867c1.489.426 2.552 1.914 2.552 3.509v17.756c0 1.17-.532 2.233-1.488 2.977-.638.212-1.383.531-2.127.531Z"/></svg>
